image/header-log.svg

<svg width="78" height="20" viewBox="0 0 78 20" fill="none" xmlns="http://www.w3.org/2000/svg">
<path d="M52.3125 4.13312C50.9638 4.13312 49.9237 4.61375 48.9587 5.61688V4.36688H46.31V16.6669H49.16V9.53312C49.16 7.9 50.1325 6.86688 51.6081 6.86688C51.8762 6.86688 52.1113 6.9 52.2788 6.93313L54.2569 4.33313C53.4856 4.2 52.8156 4.13312 52.3125 4.13312ZM76.8906 4.36688H73.6044L70.57 8.37875L67.5356 4.36625H64.2494L68.8856 10.5644L64.2494 16.6669H67.6025L70.5531 12.7756L73.5038 16.6669H76.8906L72.2231 10.5744L76.8906 4.36688ZM17.0375 1.6C16.065 2.9 15.83 3.33313 14.8913 3.33313H0.875V20H6.37437C7.615 20 8.82188 19.4 9.59313 18.4C10.5994 17.0669 10.7331 16.6669 11.7056 16.6669H25.7556V0H20.2225C18.9819 0 17.775 0.6 17.0369 1.6H17.0375ZM21.3962 12.3669H15.5281C14.2537 12.3669 13.0806 12.9 12.3094 13.9331C11.3031 15.2669 11.1019 15.6669 10.1631 15.6669H5.20062V7.66687H11.0687C12.3425 7.66687 13.5162 7.06687 14.2875 6.06687C15.2937 4.76687 15.5619 4.36688 16.4669 4.36688H21.3962V12.3669ZM42.4538 8.26688C43.695 7.56687 44.5662 6.33313 44.5662 4.7C44.5662 2.3 42.7225 0 40.04 0H31.9925V16.6669H40.04C42.9569 16.6669 44.9688 14.6 44.9688 12C44.9688 10.4669 44.265 9.13313 42.4538 8.26688ZM34.8425 2.6H39.805C41.0456 2.6 41.7831 3.76687 41.7831 4.8C41.7831 6.06687 40.6769 6.93313 39.6375 6.93313H34.8425V2.6ZM39.6375 14.0669H34.8425V9.53312H39.805C41.0794 9.53312 42.1187 10.6331 42.1187 11.7669C42.1187 13.0331 40.8112 14.0669 39.6375 14.0669Z" fill="black"/>
<path d="M61.3994 13.1331C60.93 13.8669 60.0244 14.3 59.0181 14.3C57.4431 14.3 56.135 13.2331 56.135 11.6H64.6519C64.7862 11.1 64.8194 10.8669 64.8194 10.4331C64.8194 6.7 62.5056 4.13313 59.0187 4.13313C55.5981 4.13313 53.1844 6.56688 53.1844 10.5331C53.1844 14.4 55.4975 16.9 59.0856 16.9C61.6006 16.9 63.8137 15.6669 64.4506 13.1331H61.3994ZM59.0181 6.73313C60.5944 6.73313 61.8019 7.73313 61.7681 9.23313H56.1681C56.1681 7.76688 57.4431 6.73313 59.0181 6.73313Z" fill="black"/>
</svg>

<svg xmlns="http://www.w3.org/2000/svg" width="78" height="20" fill="none"><path fill="#000" d="M52.313 4.133c-1.35 0-2.39.48-3.354 1.484v-1.25H46.31v12.3h2.85V9.533c0-1.633.973-2.666 2.448-2.666a3.5 3.5 0 0 1 .67.066l1.979-2.6c-.771-.133-1.441-.2-1.944-.2Zm24.578.234h-3.287L70.57 8.379l-3.034-4.013h-3.287l4.637 6.198-4.637 6.103h3.354l2.95-3.891 2.95 3.89h3.388l-4.668-6.092 4.668-6.207ZM17.037 1.6c-.972 1.3-1.207 1.733-2.146 1.733H.875V20h5.5c1.24 0 2.447-.6 3.218-1.6 1.006-1.333 1.14-1.733 2.113-1.733h14.05V0h-5.534c-1.24 0-2.447.6-3.185 1.6Zm4.36 10.767h-5.869c-1.274 0-2.447.533-3.219 1.566-1.006 1.334-1.207 1.734-2.146 1.734H5.201v-8h5.868c1.273 0 2.447-.6 3.218-1.6 1.007-1.3 1.275-1.7 2.18-1.7h4.93v8Zm21.057-4.1c1.241-.7 2.112-1.934 2.112-3.567 0-2.4-1.844-4.7-4.526-4.7h-8.047v16.667h8.047c2.917 0 4.929-2.067 4.929-4.667 0-1.533-.704-2.867-2.515-3.733ZM34.843 2.6h4.962c1.24 0 1.978 1.167 1.978 2.2 0 1.267-1.106 2.133-2.145 2.133h-4.795V2.6Zm4.794 11.467h-4.794V9.533h4.962c1.274 0 2.314 1.1 2.314 2.234 0 1.266-1.308 2.3-2.481 2.3Z"/><path fill="#000" d="M61.4 13.133c-.47.734-1.376 1.167-2.382 1.167-1.575 0-2.883-1.067-2.883-2.7h8.517c.134-.5.167-.733.167-1.167 0-3.733-2.313-6.3-5.8-6.3-3.42 0-5.835 2.434-5.835 6.4 0 3.867 2.314 6.367 5.902 6.367 2.515 0 4.728-1.233 5.365-3.767h-3.052Zm-2.382-6.4c1.576 0 2.784 1 2.75 2.5h-5.6c0-1.466 1.275-2.5 2.85-2.5Z"/></svg>
